(Header)
(Generated by gcodetools from Inkscape.)
(Using default header. To add your own header create file "header" in the output dir.)
M3
(Header end.)
G21 (All units in mm)

(Start cutting path id: path11762)
(Change tool to Default tool)
G00 Z5.000000
G00 X235.600000 Y35.100000
G01 Z1.000000 F100.0(Penetrate)
G03 X213.627800 Y25.129879 Z1.000000 I60.683117 J-162.930013 F400.000000
G03 X212.000000 Y22.400000 Z1.000000 I1.475151 J-2.729879
G03 X212.577899 Y21.936846 Z1.000000 I0.474545 J-0.000000
G03 X218.800000 Y23.900000 Z1.000000 I-8.264838 J37.036796
G02 X225.555826 Y26.585083 Z1.000000 I199.253827 J-491.492772
G02 X241.000000 Y32.500000 Z1.000000 I527.010173 J-1352.932266
G03 X257.708311 Y40.036826 Z1.000000 I-45.059557 J122.180722
G03 X259.000000 Y42.200000 Z1.000000 I-1.165476 J2.163174
G03 X258.293460 Y42.724778 Z1.000000 I-0.548158 J0.000000
G03 X235.600000 Y35.100000 Z1.000000 I111.496791 J-369.428872
G01 X235.600000 Y35.100000 Z1.000000
G00 Z5.000000
(End cutting path id: path11762)

(Start cutting path id: path11760)
(Change tool to Default tool)
G00 Z5.000000
G00 X555.600000 Y41.700000
G01 Z1.000000 F100.0(Penetrate)
G03 X534.418542 Y32.808111 Z1.000000 I109.878594 J-291.417140 F400.000000
G03 X532.800000 Y31.100000 Z1.000000 I1.341651 J-2.892189
G03 X532.139828 Y28.715894 Z1.000000 I41.688181 J-12.827132
G03 X532.200000 Y28.500000 Z1.000000 I0.221455 J-0.054610
G03 X532.960191 Y28.366162 Z1.000000 I0.493176 J0.575372
G03 X554.412500 Y36.662500 Z1.000000 I-453.484517 J1204.483930
G03 X575.550819 Y45.268364 Z1.000000 I-485.339698 J1222.388524
G03 X577.300000 Y46.400000 Z1.000000 I-2.253961 J5.401654
G03 X578.953859 Y49.092850 Z1.000000 I-4.135980 J4.394479
G03 X578.300000 Y49.900000 Z1.000000 I-0.605458 J0.177944
G03 X577.419842 Y49.745408 Z1.000000 I0.000000 J-2.582847
G03 X555.600000 Y41.700000 Z1.000000 I718.194015 J-1981.415693
G01 X555.600000 Y41.700000 Z1.000000
G00 Z5.000000
(End cutting path id: path11760)

